(def REST-RATE 0.15)
(def MS-LOWER 30)
(def MS-UPPER 3000)
(def MAX-OCTAVE 8)

(defn random-note
  "Plays a random note in a random octave, for a random number of
  milliseconds.

  May randomly decide to rest, instead, for a random number of milliseconds."
  []
  (let [ms (ms (rand-nth (range MS-LOWER MS-UPPER)))]
    (if (< (rand) REST-RATE)
      (pause (duration ms))
      (let [o (rand-int (inc MAX-OCTAVE))
            n [(keyword (str (rand-nth "abcdefg")))
               (rand-nth [:sharp :flat :natural])]]
       (octave o)
       (note (apply pitch n) (duration ms))))))

midi-electric-piano-1:
  (panning 25)
  (random-note) * 50

midi-timpani:
  (panning 50)
  (random-note) * 50

midi-celesta:
  (panning 75)
  (random-note) * 50
